X: 3
T: The Golden Stud
R: reel
M: 4/4
L: 1/8
K: Emin
|:E3G F3A |G3B AGFA |B2 GB AGFA |GEFD E3G |
E3G F3A |G3B AGFA |B2 GB AGFA |GEFD E3B :||
|:c2 AB cBAc |B2 GA BAGB |A2 FG AGFA |GEFD E3B |
c2 AB cBAc |B2 GA BAGB |A2 FG AGFA |GEFD E4:|


Tune 4740	Setting 28366

